X: 70
P: Tobogubben
R: polska (Boda, bond, hambo)
S: Bengt Jonsson, Leif Alpsj\"o
Z: John Chambers <jc@trillian.mit.edu>
M: 3/4
L: 1/8
K: F
|: "F"c>a ac f>g | "Bb"f2 eB d2 | "C7"c2 BG E>G |1,3 " F"F2 FA c2 :|2,4 " F"F2 F4 :|
|: "F"A2 FA d>A | "Gm"c2 BA G>F | "C"E>G ce g>e |1,3 " F"f2 af c>B:|2,4 " F"f2 f4 :|
%%newpage
